symbols/web/explicit/materialsymbolssharp/explicit_wght200gradN25fill1_40px.svg

<svg xmlns="http://www.w3.org/2000/svg" height="40" width="40"><path d="M15.958 27.458h8.084v-1.375h-6.709v-5.375h6.709v-1.333h-6.709V14h6.709v-1.333h-8.084Zm-9.166 5.75V6.792h26.416v26.416Z"/></svg>

<svg xmlns="http://www.w3.org/2000/svg" height="40" width="40"><path d="M15.958 27.458H24.042V26.083H17.333V20.708H24.042V19.375H17.333V14H24.042V12.667H15.958ZM6.792 33.208V6.792H33.208V33.208Z"/></svg>
